X:1
T:Long and Tall
L:1/8
M:C|
R:Reel
C:Bob Pasquarello  2005 
N:written to celebrate Mathew Clark's Birthday BP 1/23/2005
K:DDor
|:"Dm" A,C D2D2 A,C|"Dm"D2 DF "C"ED C2|"Dm"A,C D2D2 FA|"Gm"GFEF "Am"EDCG,|
"Dm" A,C D2 D2 A,C|"Dm"D2 DF "C"EDC2|"Dm"dcAG "F"FEDC|"Am"A,G,A,C "Dm" D4:|
|:"Dm"d2>d2- dfed|"C"cdcB "Am"A2>B2|"Am"c2>c2- cedc|"G"BAGE "Am"FEDC|
"Dm" A,C D2D2 A,C|"Dm"D2 DF "C"ED C2|"Dm"dcAG "F"FEDC|"Am"A,G,A,C "D"D4:|
